X:1
T:Title
%%score { ( 1 3 ) | ( 2 4 ) }
L:1/8
Q:1/4=85
M:2/4
K:Bb
V:1 treble nm="Grand Piano"
V:3 treble 
V:2 bass 
V:4 bass 
V:1
 [DB]2 [_D=EB]2 | [DFB]D F2 | [B,DF][B,DG] [A,EF][A,EG] | F4 | [DFB]2 [_D=EB]2 | [DFB]D F2 | %6
w: J.~Wesley~Hughes *||||||
 [CFA][DFB] [CFA][B,=EG] | [A,F]4 | [Fd][Fd] [Ge]d | Gc c2 | [=Ec][Ec] [Ed]c | z E [B,DB]2 | %12
w: ||||||
 [DB][FB] cc |[M:5/8] dd [Ge]3 | %14
w: ||
[M:2/4] F2 GA[Q:1/4=84][Q:1/4=82][Q:1/4=81][Q:1/4=80][Q:1/4=78][Q:1/4=77][Q:1/4=76][Q:1/4=74][Q:1/4=73][Q:1/4=72][Q:1/4=70][Q:1/4=69][Q:1/4=68][Q:1/4=66][Q:1/4=65] | %15
w: |
 [DB]4 |] %16
w: |
V:2
 [B,,F,B,]2 [B,,G,B,]2 | [B,,F,B,]D, F,2 | B,,B,, C,C, | D,2 C,2 | [B,,F,B,]2 [B,,G,B,]2 | %5
 [B,,F,B,]D, F,2 | F,B,, C,C, | F,4 | z F, z F | E[G,E] [E,G,CE]2 | z G, z =E | D,C, B,,2 | %12
 [B,,F,][D,B,][K:treble] [F,A,F][A,CF] |[M:5/8] [B,F][B,F_A][K:bass] [E,B,]3 | %14
[M:2/4] [F,B,D]2 [F,B,E][F,CE] | [B,,B,]4 |] %16
V:3
 x4 | x4 | x4 | [B,D]2 [A,E]2 | x4 | x4 | x4 | x4 | x4 | x4 | x4 | [A,F]2 z2 | x4 |[M:5/8] x5 | %14
[M:2/4] x4 | x4 |] %16
V:4
 x4 | x4 | x4 | x4 | x4 | x4 | x4 | x4 | B,,2 [B,,B,]2 | E,2 z2 | C,2 [C,G,B,]2 | x4 | %12
 x2[K:treble] x2 |[M:5/8] x2[K:bass] x3 |[M:2/4] x4 | x4 |] %16

